app/dist/common/images/lichen-china-limited.svg

<svg height="18" viewBox="0 0 18 18" width="18" xmlns="http://www.w3.org/2000/svg"><path d="m0 0h18v18h-18z" fill="#f0f3fa"/><path d="m5.68 5.39 4.32-2.39v1.23l-3.32 1.7zm2.18 1.11 4.14-2.47v1.23l-3.13 1.78-1-.53z" fill="#ca8e4e"/><path d="m9.1 7.89-5.1-2.69v7.13l4.86 2.54c.37.19.8.17 1.14-.05l4-2.49v-1.17l-4.23 2.66a.65.65 0 0 1 -.66.03l-1.11-.59v-.9l.86.45c.37.2.8.17 1.14-.04l4-2.5v-1.17l-4.23 2.66a.65.65 0 0 1 -.66.03l-4.11-2.16v-.76l3.86 2.02c.37.2.8.17 1.14-.04l4-2.5v-1.17l-4.23 2.66a.65.65 0 0 1 -.66.03l-1.11-.58v-.83l.86.45c.37.19.8.17 1.14-.05l4-2.49v-1.17l-4.23 2.66a.65.65 0 0 1 -.66.03zm-2.1.05-2-1.05v.82l2 1.05zm0 3.9v.9l-2-1.05v-.9z" fill="#693806" fill-rule="evenodd"/></svg>

<!-- by TradingView --><svg width="18" height="18" viewBox="0 0 18 18" xmlns="http://www.w3.org/2000/svg"><path fill="#F0F3FA" d="M0 0h18v18H0z"/><path d="M5.68 5.39 10 3v1.23l-3.32 1.7-1-.54ZM7.86 6.5 12 4.03v1.23L8.87 7.04l-1-.53Z" fill="#CA8E4E"/><path fill-rule="evenodd" d="M9.1 7.89 4 5.2v7.13l4.86 2.54c.37.19.8.17 1.14-.05l4-2.49v-1.17l-4.23 2.66a.65.65 0 0 1-.66.03L8 13.26v-.9l.86.45c.37.2.8.17 1.14-.04l4-2.5V9.1l-4.23 2.66a.65.65 0 0 1-.66.03L5 9.63v-.76l3.86 2.02c.37.2.8.17 1.14-.04l4-2.5V7.18L9.77 9.84a.65.65 0 0 1-.66.03L8 9.29v-.83l.86.45c.37.19.8.17 1.14-.05l4-2.49V5.2L9.77 7.86a.65.65 0 0 1-.66.03ZM7 7.94 5 6.89v.82l2 1.05v-.82Zm0 3.9v.9l-2-1.05v-.9l2 1.05Z" fill="#693806"/></svg>
